X:1
T:Pavane pour une infante défunte
C:Maurice Ravel
M:4/4
L:1/4
Q:1/4=58
K:G
% A section — opening horn theme
D | G A G B | A2 G D | B A G F | G4 | d B A G | A2 D2 | G A B c | d4 |]
